!!!COA:	Josquin des Prez
!!!CDT:	~1450-1521/08/27
!!!OTL@@LAT: Sic Deus dilexit mundum / Circumdederunt me
!!!AGN:	Motet
!!!SCT:	NJE 20.13
!!!SCA:	New Josquin Edition 20.13
!!!voices:	6
**kern	**kern	**kern	**kern	**kern	**kern
*staff6	*staff5	*staff4	*staff3	*staff2	*staff1
*Ivox	*Ivox	*Ivox	*Ivox	*Ivox	*Ivox
*I"Bassus2	*I"Bassus1	*I"Tenor2	*I"Tenor1	*I"Altus	*I"Superius
*I'B2	*I'B1	*I'T2	*I'T1	*I'A	*I'S
*clefF4	*clefF4	*clefGv2	*clefGv2	*clefGv2	*clefG2
*k[b-]	*k[b-]	*k[b-]	*k[b-]	*k[b-]	*k[b-]
*M2/1	*M2/1	*M2/1	*M2/1	*M2/1	*M2/1
*met(C|)	*met(C|)	*met(C|)	*met(C|)	*met(C|)	*met(C|)
=1-	=1-	=1-	=1-	=1-	=1-
!	!	!	!LO:TX:Z=10:t=Canon at the lower fifth	!	!
0r	0r	0r	0r	0c	0r
=2	=2	=2	=2	=2	=2
0r	0r	0F	0r	1f	0r
.	.	.	.	1f	.
=3	=3	=3	=3	=3	=3
0r	0r	0B-	0r	1d	0f
.	.	.	.	1d	.
=4	=4	=4	=4	=4	=4
0r	0r	1G	0r	1g	0b-
.	.	1G	.	1g	.
=5	=5	=5	=5	=5	=5
0r	0r	1.c	0r	1.e	1g
.	.	.	.	.	1g
.	.	2c\	.	4d\	.
.	.	.	.	4c\	.
=6	=6	=6	=6	=6	=6
0C	0r	1.A	0r	0c	1cc
.	.	.	.	.	1cc
.	.	4G/	.	.	.
.	.	4F/	.	.	.
=7	=7	=7	=7	=7	=7
0F	0r	1F	0r	1r	1.a
.	.	1r	.	1c	.
.	.	.	.	.	4g/
.	.	.	.	.	4f/
=8	=8	=8	=8	=8	=8
1D	0r	1F	0r	0f	1f
1D	.	[1B-	.	.	2r
.	.	.	.	.	2f/
=9	=9	=9	=9	=9	=9
1.G	0r	1B-]	0r	1d	0b-
.	.	1G	.	1d	.
2G\	.	.	.	.	.
=10	=10	=10	=10	=10	=10
1.E	0r	1G	0r	1g	1g
.	.	[1c	.	1g	1g
4D\	.	.	.	.	.
4C/	.	.	.	.	.
=11	=11	=11	=11	=11	=11
1C	0r	2c\]	0r	1e	1.cc
.	.	2B-\	.	.	.
1C	.	2.A/	.	1c	.
.	.	.	.	.	2cc\
.	.	8G/L	.	.	.
.	.	8F/J	.	.	.
=12	=12	=12	=12	=12	=12
0D	0r	1F	0r	0f	2.a/
.	.	.	.	.	4f/
.	.	1B-	.	.	1f
=13	=13	=13	=13	=13	=13
0C	0r	0G	0c	0e	0g
=14	=14	=14	=14	=14	=14
1FF	0r	0F	1c	1r	1r
[1F	.	.	1c	[1f	[1a
=15	=15	=15	=15	=15	=15
2F\]	0r	1r	[0d	2f\]	2a/]
2D\	.	.	.	2f\	2a/
1D	.	1F	.	1f	1a
=16	=16	=16	=16	=16	=16
1G	0r	0B-	0d]	1g	1b-
1G	.	.	.	1g	1b-
=17	=17	=17	=17	=17	=17
0A	0r	[0A	0c	0e	1.cc
.	.	.	.	.	2a/
=18	=18	=18	=18	=18	=18
0D	0F	1A]	[0d	1f	[0a
.	.	2r	.	1F	.
.	.	[2A/	.	.	.
=19	=19	=19	=19	=19	=19
1r	1F	4A/]	0d]	1.A	0a]
.	.	4G/	.	.	.
.	.	4F/	.	.	.
.	.	4E/	.	.	.
1F	1F	1D	.	.	.
.	.	.	.	2B-\	.
=20	=20	=20	=20	=20	=20
1E	[0G	1C	[0e	[0c	1r
[1C	.	[1E	.	.	[1g
=21	=21	=21	=21	=21	=21
0C]	0G]	2E/]	0e]	0c]	2g/]
.	.	2E/	.	.	2g/
.	.	1E	.	.	1g
=22	=22	=22	=22	=22	=22
0FF	0F	1F	0r	1c	2a/
.	.	.	.	.	1a
.	.	1C	.	1A	.
.	.	.	.	.	4g/
.	.	.	.	.	4f/
=23	=23	=23	=23	=23	=23
1C	[0G	2r	0r	2.G/	1e
.	.	2C/	.	.	.
.	.	.	.	4A/	.
2BB-/	.	2D/	.	2B-\	2d/
[2C/	.	2C/	.	[2G/	[2e/
=24	=24	=24	=24	=24	=24
2C/]	0G]	1E	0r	2G/]	2e/]
4BB-/	.	.	.	1c	4d/
4AA/	.	.	.	.	4c/
1GG	.	1r	.	.	1d
.	.	.	.	2B-\	.
=25	=25	=25	=25	=25	=25
1r	[0A	0F	0r	[0c	1c
[1FF	.	.	.	.	[1cc
=26	=26	=26	=26	=26	=26
2FF/]	0A]	1.C	0r	0c]	2cc\]
2GG/	.	.	.	.	2b-\
2AA/	.	.	.	.	1a
2BB-/	.	2D/	.	.	.
=27	=27	=27	=27	=27	=27
0C	0r	2E/	[0e	1r	0g
.	.	2F/	.	.	.
.	.	1G	.	[1c	.
=28	=28	=28	=28	=28	=28
1.C	0r	1.G	1e]	2c\]	1r
.	.	.	.	4B-\	.
.	.	.	.	4A/	.
.	.	.	1e	2G/	[1cc
2C/	.	2G/	.	2G/	.
=29	=29	=29	=29	=29	=29
1FF	0r	[0F	0f	1A	2cc\]
.	.	.	.	.	2b-\
1FF	.	.	.	1A	2.a/
.	.	.	.	.	4g/
=30	=30	=30	=30	=30	=30
0BB-	0r	1F]	[0d	0B-	2f/
.	.	.	.	.	2f/
.	.	1F	.	.	[1b-
=31	=31	=31	=31	=31	=31
0GG	0r	0G	0d]	0B-	2b-\]
.	.	.	.	.	2a/
.	.	.	.	.	2g/
.	.	.	.	.	2f/
=32	=32	=32	=32	=32	=32
1r	[0A	0C	[0c	1.c	0e
1C	.	.	.	.	.
.	.	.	.	2d\	.
=33	=33	=33	=33	=33	=33
1AA	1A]	1C	0c]	1e	1r
1FF	1A	1F	.	[1f	1a
=34	=34	=34	=34	=34	=34
1BB-	0B-	1D	0r	2f\]	1f
.	.	.	.	2d\	.
1D	.	1F	.	1d	1f
=35	=35	=35	=35	=35	=35
1.C	[0G	2E/	0r	1.e	[0g
.	.	2C/	.	.	.
.	.	2.c\	.	.	.
4BB-/	.	.	.	4d\	.
4AA/	.	8B-/L	.	4c\	.
.	.	8A/J	.	.	.
=36	=36	=36	=36	=36	=36
1GG	0G]	1B-	0r	1d	0g]
1C	.	[1c	.	1e	.
=37	=37	=37	=37	=37	=37
0FF	[0F	1c]	0r	[0f	1a
.	.	[1A	.	.	1cc
=38	=38	=38	=38	=38	=38
1r	0F]	2A/]	0r	0f]	1.cc
.	.	2A/	.	.	.
[1F	.	1A	.	.	.
.	.	.	.	.	2cc\
=39	=39	=39	=39	=39	=39
2F\]	0r	1F	0c	0r	1a
4E\	.	.	.	.	.
4D\	.	.	.	.	.
1E	.	1G	.	.	1g
=40	=40	=40	=40	=40	=40
0F	0r	0A	1c	1.f	1.cc
.	.	.	1A	.	.
.	.	.	.	2f\	4b-\
.	.	.	.	.	4a/
=41	=41	=41	=41	=41	=41
1r	0r	1r	1G	1d	1b-
1F	.	1A	[1c	1c	1cc
=42	=42	=42	=42	=42	=42
0D	0r	1A	2c\]	1f	0r
.	.	.	4B-\	.	.
.	.	.	4A/	.	.
.	.	1F	1B-	[1f	.
=43	=43	=43	=43	=43	=43
0C	0r	0G	0c	2f\]	1g
.	.	.	.	4e\	.
.	.	.	.	4d\	.
.	.	.	.	1e	1g
=44	=44	=44	=44	=44	=44
0FF	0F	1c	0r	1f	1.a
.	.	2.A/	.	1c	.
.	.	.	.	.	2a/
.	.	4B-\	.	.	.
=45	=45	=45	=45	=45	=45
[0FF	1F	1c	0r	1A	1a
.	1D	1d	.	2A/	1a
.	.	.	.	2B-\	.
=46	=46	=46	=46	=46	=46
1FF]	1C	0A	0r	0c	0a
1FF	[1F	.	.	.	.
=47	=47	=47	=47	=47	=47
1GG	2F\]	0r	0r	0r	1r
.	4E\	.	.	.	.
.	4D\	.	.	.	.
1GG	1E	.	.	.	1g
=48	=48	=48	=48	=48	=48
1FF	0F	0r	0r	1f	0a
1F	.	.	.	1f	.
=49	=49	=49	=49	=49	=49
0G	0r	0r	1r	1d	0b-
.	.	.	1B-	1e	.
=50	=50	=50	=50	=50	=50
1.F	0r	1r	1c	1.f	1a
.	.	[1A	1c	.	[1cc
[2A\	.	.	.	4e\	.
.	.	.	.	4d\	.
=51	=51	=51	=51	=51	=51
2A\]	0r	2A/]	0c	0e	2cc\]
4G\	.	2B-\	.	.	4b-\
4F\	.	.	.	.	4a/
1E	.	1c	.	.	1g
=52	=52	=52	=52	=52	=52
1D	0r	1F	[0d	1r	1f
1D	.	1F	.	1f	1a
=53	=53	=53	=53	=53	=53
1GG	0r	1D	0d]	1.g	1.b-
1GG	.	[1G	.	.	.
.	.	.	.	2f\	4a/
.	.	.	.	.	4g/
=54	=54	=54	=54	=54	=54
1.C	1r	2G/]	[0c	2e\	1g
.	.	2F/	.	2d\	.
.	1E	2E/	.	1c	[1cc
2BB-/	.	2D/	.	.	.
=55	=55	=55	=55	=55	=55
2AA/	1F	1C	0c]	1r	2cc\]
2GG/	.	.	.	.	2b-\
1FF	1F	1r	.	[1c	[1a
=56	=56	=56	=56	=56	=56
1F	0F	0r	0r	2c\]	2a/]
.	.	.	.	4B-\	2g/
.	.	.	.	4A/	.
1D	.	.	.	1B-	2f/
.	.	.	.	.	4e/
.	.	.	.	.	4d/
=57	=57	=57	=57	=57	=57
1C	[0G	0r	1r	1c	[0e
1GG	.	.	1B-	[1g	.
=58	=58	=58	=58	=58	=58
0C	0G]	1r	1c	2g\]	0e]
.	.	.	.	2e\	.
.	.	1G	1c	2e\	.
.	.	.	.	2e\	.
=59	=59	=59	=59	=59	=59
1FF	[0F	0A	0c	0f	1r
1F	.	.	.	.	1a
=60	=60	=60	=60	=60	=60
2D\	0F]	1A	[0d	1r	1a
1D	.	.	.	.	.
.	.	1A	.	1f	2a/
2D\	.	.	.	.	2a/
=61	=61	=61	=61	=61	=61
1.G	0r	0G	0d]	1d	1.b-
.	.	.	.	[1g	.
2F\	.	.	.	.	4a/
.	.	.	.	.	4g/
=62	=62	=62	=62	=62	=62
2E\	1r	1r	[0cl	2g\]	1g
2D\	.	.	.	2f\	.
2C/	1E	1G	.	2e\	[1cc
2BB-/	.	.	.	2d\	.
=63	=63	=63	=63	=63	=63
2AA/	1F	[0A	0c_	1c	2cc\]
2GG/	.	.	.	.	2b-\
1FF	1F	.	.	[1f	[1a
=64	=64	=64	=64	=64	=64
1r	0F	0A]	0c_	2f\]	2a/]
.	.	.	.	4e\	2g/
.	.	.	.	4d\	.
1FF	.	.	.	1c	2f/
.	.	.	.	.	4e/
.	.	.	.	.	4d/
=65	=65	=65	=65	=65	=65
1C	[0G	1G	0c_	1r	1e
1C	.	1E	.	[1e	2r
.	.	.	.	.	2g/
=66	=66	=66	=66	=66	=66
0C	0G]	2r	0c_	2e\]	2g/
.	.	1C	.	2e\	2g/
.	.	.	.	1e	1g
.	.	[2C/	.	.	.
=67	=67	=67	=67	=67	=67
[0FFl	[0Fl	2C/]	0c_	1f	2a/
.	.	2C/	.	.	2.cc\
.	.	1F	.	1c	.
.	.	.	.	.	4b-\
.	.	.	.	.	4a/
.	.	.	.	.	4g/
=68	=68	=68	=68	=68	=68
0FF]	0F]	0Cl	0c]	0fl	0al
==	==	==	==	==	==
*-	*-	*-	*-	*-	*-
!!!RDF**kern: l=long note in original notation
!!!ENC:	Will Watson 13/09/2011
!!!END:	2011/09/13/
!!!EED:	Jesse Rodin
!!!EEV:	2011/12/16/
!!attribution-level@Jos: 4 (questionable)
!!!ONB:	Translated from MusicXML and edited on 2011/12/16/ by Craig Sapp
!!muse2ps: C^@{COA}?\n@{SCT}^v96,96,96,96,96,130i2I150c85Q16
